packages/ui/src/components/icon-v2/icons/warning-circle-solid.svg

<svg viewBox="0 0 16 16" fill="none" xmlns="http://www.w3.org/2000/svg">
<path fill-rule="evenodd" clip-rule="evenodd" d="M8 2C11.3137 2 14 4.68629 14 8C14 11.3137 11.3137 14 8 14C4.68629 14 2 11.3137 2 8C2 4.68629 4.68629 2 8 2ZM8.34082 10.6289C8.13575 10.4442 7.81963 10.4602 7.63477 10.665L7.62891 10.6719C7.44449 10.877 7.46025 11.1932 7.66504 11.3779C7.86995 11.5622 8.18626 11.5461 8.37109 11.3418L8.37793 11.335C8.56253 11.13 8.54542 10.8138 8.34082 10.6289ZM8 4.5C7.72401 4.50011 7.50011 4.72401 7.5 5V8.59961L7.50977 8.70117C7.55658 8.92869 7.75865 9.09951 8 9.09961C8.24138 9.09952 8.44345 8.92873 8.49023 8.70117L8.5 8.59961V5C8.49989 4.72401 8.27599 4.5001 8 4.5Z" fill="currentColor"/>
</svg>

<svg xmlns="http://www.w3.org/2000/svg" fill="none" viewBox="0 0 16 16"><path fill="currentColor" fill-rule="evenodd" d="M8 2a6 6 0 1 1 0 12A6 6 0 0 1 8 2m.34 8.629a.5.5 0 0 0-.705.036l-.006.007a.5.5 0 0 0 .742.67l.007-.007a.5.5 0 0 0-.037-.706M8 4.5a.5.5 0 0 0-.5.5v3.6l.01.101a.5.5 0 0 0 .98 0L8.5 8.6V5a.5.5 0 0 0-.5-.5" clip-rule="evenodd"/></svg>
